!!!!SEGMENT: pl-wtm--670-sp-3678--001-024_spiess-j-b--piosenki-dla-mlodocianego-wieku-piotr-maszynski-24-dzwonki-polne.krn
!!!cenid: 18xx:4776
!!!COM: Spiess, J. B
!!!COM-rismID:
!!!CDT:
!!!CNT:
!!!GTL: Piosenki dla młodocianego wieku (Piotr Maszyński)
!!!OTL: 24. Dzwonki polne
!!!OMV: 024
!!!PDT: 1871
!!!AGN: Secular; Song; Children
!!!YEC: Copyright 2022 Narodowy Instytut Fryderyka Chopina (https://polishscores.org)
!!!YEM: License CC-BY-4.0 (https://creativecommons.org/licenses/by/4.0)
!!!SMS-siglum: PL-Wtm
!!!SMS-shelfmark: 670 śp 3678
!!!SMS-variant:
!!!SMS-altvar:
!!!SMS-shelfwork: 001-024 G
!!!NIFC-rismSourceID: 1001185478
!!!NIFC-rismChildID: 1001185478
!!!NIFC-islandoraID: pl-wtm:57754
!!!URL-pdf-islandora: https://repozytorium.nifc.pl/islandora/object/pl-wtm%3A57754/datastream/PDF/view
!!!URL-scan: https://polish.musicsources.pl/pl/lokalizacje/galeria/druki-muzyczne/19483/16 @EN{Scan on Polish Music Sources Website} @PL{Skany w portalu Dziedzictwo Muzyki Polskiej w otwartym dostępie}
!!!IIIF:
!!!ONB-nifc:
!!!AIN: 1 canto 1 piano
!!!key: C
**kern	**fing	**kern	**fing	**dynam	**kern	**text	**text	**text	**dynam
*part2	*	*part2	*	*part2	*part1	*part1	*part1	*part1	*part1
*staff3	*	*staff2	*	*staff2/3	*staff1	*staff1	*staff1	*staff1	*
*IGacmp	*	*IGacmp	*	*	*	*	*	*	*
*ICklav	*	*ICklav	*	*	*ICvox	*	*	*	*
*Ipiano	*	*Ipiano	*	*	*Icanto	*	*	*	*
*I"Fortepian.	*	*I"Fortepian.	*	*	*I"Śpiew.	*	*	*	*
*I'	*	*I'	*	*	*I'	*	*	*	*
*clefF4	*	*clefG2	*	*	*clefG2	*	*	*	*
*k[]	*	*k[]	*	*	*k[]	*	*	*	*
*C:	*	*C:	*	*	*C:	*	*	*	*
*M2/4	*	*M2/4	*	*	*M2/4	*	*	*	*
*	*	*	*	*	*^	*	*	*	*
!!LO:TX:a:B:t=Allegretto.
!	!	!	!	!	!	!	!	!	!	!LO:DY:a:rj
8r	.	8g'/	.	mf	8g/	8g\	Oj	Nie-	A	mf
=1	=1	=1	=1	=1	=1	=1	=1	=1	=1	=1
8C'\L	.	8gL 8e'/	.	.	8g/	8e\	dzwo-	-bies-	dzwon-	.
8G'\	.	8e 8c'/	.	.	8e/	8c\	-nią	-kich,	-ki	.
8C'\	.	8e 8c'/	.	.	8e/	8c\	dzwon-	bia-	pol-	.
8G'\J	.	8ccJ 8e'/	.	.	8cc/	8e\	-ki	-łych,	-ne	.
=2	=2	=2	=2	=2	=2	=2	=2	=2	=2	=2
8FF'\L	.	8aL 8f'/	2 4	.	8a/	8f\	pol-	żół-	da-	.
8A'\	.	8f 8d'/	.	.	8f/	8d\	-ne	-tych	-lej-	.
8F'\	.	8f 8d'/	.	.	8f/	8d\	w krąg,	plam	-że	.
8A'\J	.	8ddJ 8f'/	.	.	8dd/	8f\	hen	jak	do	.
=3	=3	=3	=3	=3	=3	=3	=3	=3	=3	=3
8GG'\L	.	8bL 8d'/	1 5	.	8b/	8d\	sły-	po-	tań-	.
8B'\	.	8g 8f'/	2 3	.	8g/	8g\	-chać	-siał	-ca	.
8G'\	.	8a 8f'/	.	.	8a/	8f\	je	na-	dzwo-	.
8B'\J	.	8gJ 8f'/	.	.	8g/	8f\	z da-	-o	-nić	.
!!LO:LB:g=original
=4	=4	=4	=4	=4	=4	=4	=4	=4	=4	=4
!	!	!LO:N:vis=4	!	!	!	!	!	!	!	!
8C'\L	.	4.g 4.e/	.	.	4g/	4e\	-le-	kół-	żwa-	.
8G'\	.	.	.	.	.	.	.	.	.	.
8c'\J	.	.	.	.	8g/	8e\	-ka:	-ko,	-wo,	.
8r	.	8g/	.	.	8g/	8g\	ma-	tu	aż	.
=5	=5	=5	=5	=5	=5	=5	=5	=5	=5	=5
8GG'\L	.	8.ddL 8.f/	1 5	.	8.dd/	8.f\	-jo-	nie-	księ-	.
8G'\	.	.	.	.	.	.	.	.	.	.
.	.	16eeK 16g/	2 5	.	16ee/	16g\	-we	-za-	-życ	.
8C'\	.	8cc 8e'/	1 5	.	8cc/	8e\	kwiat-	-bud-	z gó-	.
8G'\J	.	8gJ 8e'/	.	.	8g/	8g\	-ki	-ka,	-ry,	.
=6	=6	=6	=6	=6	=6	=6	=6	=6	=6	=6
8GG'\L	.	8.ddL 8.f/	.	.	8.dd/	8.f\	won-	ja-	sły-	.
8G'\	.	.	.	.	.	.	.	.	.	.
.	.	16eeK 16g/	.	.	16ee/	16g\	-nych	-skier	-sząc	.
8C'\J	.	8ccJ 8e/	.	.	8cc/	8e\	łąk,	tam	je,	.
*	*below	*	*	*	*	*	*	*	*	*
8C/'	5	8g 8e/	.	.	8g/	8e\	za-	dzie-	u-	.
=7	=7	=7	=7	=7	=7	=7	=7	=7	=7	=7
8F'\L	.	8.aL 8.f\	.	.	8.a/	8.f\	-ba-	-wan-	-ka-	.
8D'\	.	.	.	.	.	.	.	.	.	.
.	.	16ffJk 16a\	2 5	.	16ff/	16a\	-wa	-na,	-zał	.
8G'\	.	16eeLL 16g/	1 5	.	(16ee/LL	(16g\LL	na	bo-	twarz	.
.	.	16dd 16f/	1 4	.	16dd/JJ)	16f\JJ)	.	.	.	.
8GG'\J	.	16cc 16e/	1 5	.	(16cc/LL	16e\LL	was	-że	cie-	.
.	.	16bJJ 16d/	1 4	.	16b/JJ)	16d\JJ	.	.	.	.
!!LO:LB:g=original
=8	=8	=8	=8	=8	=8	=8	=8	=8	=8	=8
8C\L	.	4.cc 4.e/	.	.	4cc/	4e\	cze-	ziół-	-ka-	.
16E\L	.	.	.	.	.	.	.	.	.	.
16G\JJ	.	.	.	.	.	.	.	.	.	.
8C/	.	.	.	.	8cc/	8e\	-ka;	-ko;	-wą;	.
!	!	!	!	!	!LO:TX:a:B:t=Wszyscy.	!	!	!	!	!LO:DY:a
8r	.	8g/	.	f	8g/	8g\	ma-	tu	aż	f
=9	=9	=9	=9	=9	=9	=9	=9	=9	=9	=9
8GG'\L	.	8.ddL 8.f/	.	.	8.dd/	8.f\	-jo-	nie-	księ-	.
8G'\	.	.	.	.	.	.	.	.	.	.
.	.	16eeK 16g/	.	.	16ee/	16g\	-we	-za-	-życ	.
8C'\	.	8cc 8e/'	.	.	8cc/	8e\	kwiat-	-bud-	z gó-	.
8c'\J	.	8gJ 8e/'	.	.	8g/	8g\	-ki	-ka,	-ry,	.
=10	=10	=10	=10	=10	=10	=10	=10	=10	=10	=10
8GG'\L	.	8.ddL 8.f/	.	.	8.dd/	8.f\	won-	ja-	sły-	.
8G'\	.	.	.	.	.	.	.	.	.	.
.	.	16eeK 16g/	.	.	16ee/	16g\	-nych	-skier	-sząc	.
8C'\	.	8ccJ 8e/	.	.	8cc/	8e\	łąk	tam,	je,	.
!	!	!LO:N:vis=4	!	!	!	!	!	!	!	!
8c'\J	.	8g 8e/	.	.	8g/	8e\	za-	dzie-	u-	.
=11	=11	=11	=11	=11	=11	=11	=11	=11	=11	=11
8F'\L	.	8.aL 8.f\	.	.	8.a/	8.f\	-ba-	-wan-	-ka-	.
8D'\J	.	.	.	.	.	.	.	.	.	.
.	.	16ffJk 16a\	.	.	16ff/	16a\	-wa	-na	-zał	.
8G'/L	.	16eeLL 16g/	.	.	16ee/LL	16g\LL	na	bo-	twarz	.
.	.	16dd 16f/	.	.	16dd/JJ	16f\JJ	.	.	.	.
8GG'/J	.	16cc 16e/	.	.	16cc/LL	16e\LL	was	-że	cie-	.
.	.	16bJJ 16d/	.	.	16b/JJ	16d\JJ	.	.	.	.
=12	=12	=12	=12	=12	=12	=12	=12	=12	=12	=12
8C\L	.	4.cc 4.e/	.	.	4cc/	4e\	cze-	ziół-	-ka-	.
16E\L	.	.	.	.	.	.	.	.	.	.
16G\JJ	.	.	.	.	.	.	.	.	.	.
8C/	.	.	.	.	8cc/	8e\	-ka.	-ko.	-wą.	.
*	*	*	*	*	*v	*v	*	*	*	*
==	==	==	==	==	==	==	==	==	==
*-	*-	*-	*-	*-	*-	*-	*-	*-	*-
!!!system-decoration: s1{(s2,s3)}
!!!RDF**kern: > = above
!!!RDF**kern: < = below
!!!RDF**kern: N = linked
!!!ENC: Andrzej Gręziak
!!!EED: Katarzyna Serwa
!!!END: 2025-03-26
!!!EEV: 2025-04-01
